X: 35655
T: Sailor On The Rope, The
R: reel
M: 4/4
K: Adorian
|:E|EA (3AAA AdBA|GEED EFGA|B2 Bc dedc|~B2 G2 G3 A|
BA (3AAA AdBA|GEED EFGA|Bdea gedc|~B2 A2 A3:|
|:e|g2 g2 g2 ef|g2 dc BG ~G2|dg ~g2 gbag|f2 dc BG ~G2|
EA (3AAA AdBA|GEED EFGA|Bdea gedc|~B2 A2 A3:|

